remix/System/shield-flash-fill.svg

<svg viewBox="0 0 24 24" fill="currentColor" xmlns="http://www.w3.org/2000/svg"><path d="M3.78307 2.82598L12 1L20.2169 2.82598C20.6745 2.92766 21 3.33347 21 3.80217V13.7889C21 15.795 19.9974 17.6684 18.3282 18.7812L12 23L5.6718 18.7812C4.00261 17.6684 3 15.795 3 13.7889V3.80217C3 3.33347 3.32553 2.92766 3.78307 2.82598ZM13 10V5L8 12H11V17L16 10H13Z"/></svg>

<svg viewBox="0 0 24 24" xmlns="http://www.w3.org/2000/svg"><path fill="none" d="M0 0h24v24H0Z"/><path d="M3.78 2.82L11.99.99l8.21 1.826v0c.45.1.78.5.78.976v9.987 -.001c-.01 2-1.01 3.87-2.68 4.99l-6.33 4.21 -6.33-4.22h0c-1.67-1.12-2.68-2.99-2.68-4.991V3.77v0c0-.47.32-.88.78-.976Zm9.21 7.174v-5l-5 7h3v5l5-7h-3Z"/></svg>
